X: 23938
T: Lochaber Badger, The
R: reel
M: 4/4
K: Eminor
|:B2 AG AG E2|E2 DE GDEG|B2 AG AG E2|EDGD E4:|
|:E2 DE GE A2|A2 AG Bd B2|B2 AG AG E2|EDGD E3z:|

